!!!COA:	Josquin des Prez
!!!CDT:	~1450-1521/08/27
!!!OPR:	Missa Mon seul plaisir
!!!ONM:	4
!!!OTL:	Sanctus
!!!AGN:	Mass; Sanctus
!!!SCT:	NJE 9.2
!!!SCA:	New Josquin Edition 9.2
!!!voices:	4
!!!voices-OPR:	4
**kern	**kern
*staff2	*staff1
*Ivox	*Ivox
*I"Bassus	*I"Tenor
*I'B	*I'T
*>[A,B,C,D]	*>[A,B,C,D]
*>A	*>A
*clefF4	*clefGv2
*k[]	*k[]
*M2/1	*M2/1
*met(C|)	*met(C|)
=1-	=1-
!!LO:TX:Z=12:t=[Only T and B are extant]
0G	0G
=2	=2
0D	0F
=3	=3
0E	0G
=4	=4
0D	0A
=5	=5
0r	1B
.	1G
=6	=6
0D	0A
=7	=7
1E	1G
1C	1c
=8	=8
0G	0d
=9	=9
2.C/	0c
4D\	.
2E\	.
[2F\	.
=10	=10
4F\]	1A
4E\	.
4D\	.
4C/	.
1D	1B
=11	=11
1.C	0c
4BB/	.
4AA/	.
=12	=12
0GG	0d
=13	=13
0AA	0c
=14	=14
1D	1A
2GG/	2.B\
[2G\	.
.	4c\
=15	=15
2G\]	2d\
1E	1e
2F\	2c\
=16	=16
2D\	2d\
2E\	2B\
2C/	2c\
[2D\	[2A/
=17	=17
2D\]	2A/]
1BB	1d
2C/	2c\
=18	=18
2D\	2B\
2E\	2G/
1D	1A
=19	=19
0GG	0G
=20	=20
1r	1r
1G	1G
=21	=21
1D	0d
1G	.
=22	=22
1C	0c
1F	.
=23	=23
1D	1d
1E	1B
=24	=24
0AA	1A
.	1r
=25	=25
1C	1G
2.C/	[1c
4D\	.
=26	=26
1E	2c\]
.	2d\
1AA	1e
=27	=27
2r	2c\
1G	1e
4F\	4d\
4E\	4c\
=28	=28
2D\	2B\
2C/	1c
1D	.
.	2B\
=29	=29
1C	1c
2r	1r
2G\	.
=30	=30
1F	0c
1A	.
=31	=31
1.G	0d
2F\	.
=32	=32
1E	1G
1D	1A
=33	=33
2GG/	1G
1C	.
.	1r
4BB/	.
4AA/	.
=34	=34
0GG	0G
=35	=35
2.C/	1.E
4D\	.
2C/	.
2BB/	2D/
=36	=36
1.AA	1E
.	2F/
2GG/	2G/
=37	=37
1AA	1E
1E	2r
.	[2e\
=38	=38
1F	2e\]
.	2d\
1E	1e
=39	=39
1AA	2r
.	1E
2A\	.
[2G\	[2G/
=40	=40
2G\]	2G/]
2A\	2F/
[1F	2.A/
.	4B\
=41	=41
2F\]	2c\
2D\	2d\
1E	1B
=42	=42
2.F\	0A
4E\	.
2D\	.
4C/	.
4BB/	.
=43	=43
2AA/	0r
2A\	.
2.A\	.
4G\	.
=44	=44
2F\	2r
4E\	1r
4D\	.
2C/	.
2c\	2A/
=45	=45
2.c\	2.A/
4B\	4G/
2A\	2F/
4G\	4E/
4F\	4D/
=46	=46
2E\	2C/
2AA/	1.c
2E\	.
2C/	.
=47	=47
2G\	2B\
2D\	1.A
2r	.
2A\	.
=48	=48
2G\	2B\
1F	2A/
.	2c\
2G\	2B\
=49	=49
1E	1G
1D	1A
=50	=50
2E\	0G
4D\	.
4C/	.
2BB/	.
2C/	.
=51	=51
2GG/	0r
2.C/	.
4D\	.
4E\	.
4F\	.
=52	=52
2.G\	0r
4F\	.
4E\	.
4D\	.
4C/	.
4BB/	.
=53	=53
2C/	0r
2D\	.
1BB	.
=54	=54
[0AA	1.e
.	2d\
=55	=55
1AA]	1c
1E	1B
=56	=56
1.F	1.A
2C/	2G/
=57	=57
1D	1F
1AA	1E
=58	=58
1D	1D
2GG/	2r
[2G\	2r
=59	=59
2G\]	2r
4F\	2D/
4E\	.
2D\	2A/
2G\	2B\
=60	=60
1C	1.c
2r	.
[2F\	2A/
=61	=61
2F\]	2.d\
2D\	.
.	4c\
1G	4B\
.	4A/
.	2G/
=62	=62
2C/	4c\
.	4B\
2E\	4A/
.	4G/
1D	1A
=63	=63
2E\	[0G;l
4D\	.
4C/	.
2BB/	.
2C/	.
=64	=64
2GG/	0G_
1C	.
2BB/	.
=65	=65
0C	0G_
=66	=66
0GG;l	0G]
!!LO:LB:i:g=z
=67||	=67||
*>B	*>B
*clefF4	*clefGv2
*k[]	*k[]
*M2/1	*M2/1
*met(C|)	*met(C|)
!!section: Pleni
!!!OMD: Pleni
0G	0r
=68	=68
1D	0r
1D	.
=69	=69
0E	0r
=70	=70
1.D	0r
2D\	.
=71	=71
1E	0r
1C	.
=72	=72
0G	0r
=73	=73
1C	0r
2r	.
2C/	.
=74	=74
2D\	0r
2E\	.
1D	.
=75	=75
0GG	0r
=76	=76
2.C/	0r
4D\	.
4E\	.
4C/	.
[2F\	.
=77	=77
2F\]	0r
2E\	.
2.F\	.
8E\L	.
8F\J	.
=78	=78
1G	0r
1GG	.
=79	=79
0D	0r
=80	=80
1AA	0r
1D	.
=81	=81
1C	0r
1AA	.
=82	=82
2.E\	0r
4F\	.
1G	.
=83	=83
1C	0r
1F	.
=84	=84
1E	0r
1D	.
=85	=85
1.E	0r
2C/	.
=86	=86
1D	0r
2BB/	.
2C/	.
=87	=87
2AA/	0r
1D	.
2C/	.
=88	=88
1D	0r
1F	.
=89	=89
1E	0r
1D	.
=90	=90
2r	0r
2D\	.
2AA/	.
[2D\	.
=91	=91
4D\]	0r
4E\	.
4F\	.
4D\	.
2E\	.
[2D\	.
=92	=92
2D\]	0r
2G\	.
2F\	.
[2E\	.
=93	=93
2E\]	0r
4D\	.
4C/	.
1D	.
=94	=94
2.C/	0r
4D\	.
2E\	.
2F\	.
=95	=95
2E\	0r
2AA/	.
2A\	.
2D\	.
=96	=96
2A\	0r
2F\	.
1E	.
=97	=97
2F\	0r
4E\	.
4D\	.
2C/	.
[2G\	.
=98	=98
2G\]	0r
2F\	.
2E\	.
4D\	.
4C/	.
=99	=99
1D	0r
1GG	.
=100	=100
1D	0r
2r	.
[2C/	.
=101	=101
2C/]	0r
1F	.
4E\	.
4D\	.
=102	=102
2C/	0r
2F\	.
2E\	.
2AA/	.
=103	=103
1D	0r
2GG/	.
2AA/	.
=104	=104
1E	0r
2AA/	.
[2D\	.
=105	=105
2D\]	0r
4C/	.
4BB/	.
2AA/	.
2D\	.
=106	=106
2C/	0r
2F\	.
2E\	.
[2A\	.
=107	=107
4A\]	0r
4G\	.
4A\	.
4F\	.
2G\	.
2E\	.
=108	=108
2F\	0r
2D\	.
2E\	.
[2C/	.
=109	=109
4C/]	0r
4D\	.
2E\	.
1D	.
=110	=110
1GG	0r
2r	.
[2G\	.
=111	=111
4G\]	0r
4F\	.
4E\	.
4D\	.
2E\	.
2D\	.
=112	=112
2C/	0r
2AA/	.
1BB	.
=113	=113
0AA	0r
=114	=114
2r	0r
2E\	.
2F\	.
2C/	.
=115	=115
2D\	0r
2GG/	.
1AA	.
=116	=116
2.D\	0r
4GG/	.
1GG	.
=117	=117
1G	0r
2.E\	.
4F\	.
=118	=118
2G\	0r
2A\	.
1G	.
=119	=119
1C	0r
1r	.
=120	=120
1D	0r
2.BB/	.
4C/	.
=121	=121
2D\	0r
2E\	.
1D	.
=122	=122
0GGl	0r
!!LO:LB:i:g=z
=123||	=123||
*>C	*>C
*clefF4	*clefGv2
*k[]	*k[]
*M3/1	*M3/1
*met(O/3)	*met(O/3)
!!section: Osanna
!!!OMD: Osanna
!!LO:TX:Z=12:t=mensuration&colon; O/3
0.G	0.G
=124	=124
0D	0A
1E	[1G
=125	=125
1C	0.G]
0G	.
=126	=126
0.C	[0.G
=127	=127
1.G	0.G]
2F\	.
1E	.
=128	=128
0.D	0A
.	1d
=129	=129
0G	0B
[1A	[1c
=130	=130
1A]	1c]
0G	0d
=131	=131
1.C	0c
2D\	.
1E	1r
=132	=132
1F	0A
0D	.
.	1B
=133	=133
1.C	2.c\
.	4B\
.	4A/
.	4G/
2BB/	1G
1AA	.
.	2F/
=134	=134
1GG	1G
1G	1B
1A	1c
=135	=135
1F	1A
0E	0B
=136	=136
0.AA	0.A
=137	=137
1.D	1.A
2E\	2G/
2F\	2A/
2G\	2B\
=138	=138
1C	1c
1G	1B
1F	1A
=139	=139
1E	1.G
0D	.
.	4F/
.	4E/
.	1F
=140	=140
1C	0G
1r	.
1C	1r
=141	=141
1F	0c
1A	.
2.G\	2.d\
4A\	4c\
=142	=142
2G\	1d
2D\	.
2F\	4c\
.	4B\
2G\	4A/
.	4G/
1D	1A
=143	=143
2.GG/	0G
4AA/	.
2BB/	.
2C/	.
1GG	1r
=144	=144
1C	2.G/
.	4A/
1r	2B\
.	2c\
1r	2d\
.	2B\
=145	=145
1r	2c\
.	2A/
1r	2c\
.	2d\
1E	1B
=146	=146
2.F\	2.A/
4E\	8GL/
.	8AJ/
2D\	2B\
2C/	1A
1BB	.
.	2G#i/
=147	=147
*M2/1	*M2/1
*met(C|/2)	*met(C|/2)
!!LO:TX:Z=12:t=mensuration&colon; Cut C over 2
0AA	0A
=148	=148
0r	0r
=149	=149
0D	[0A
=150	=150
1AA	1A]
[1C	[1G
=151	=151
1C]	1G]
1D	2F/
.	2E/
=152	=152
0D	1F
.	1D
=153	=153
1C	0E
1AA	.
=154	=154
1D	1F
1E	1G
=155	=155
0D	0A
=156	=156
0GG	0G
=157	=157
!	!LO:TX:Z=10:t=triplet
3%4GGV	3%4.G
3%2GZ	.
=158	=158
!	!LO:TX:Z=10:t=triplet
3%4FV	3%4.c
3%2AZ	.
=159	=159
3%4GV	3%4dV
3%2EZ	3%2eZ
=160	=160
3%4FV	3%2.cV
.	3A/
3%2GZ	3%2BZ
=161	=161
3%4CV	3%2cV
.	3%2r
3%2GZ	3%2GZ
=162	=162
!	!LO:TX:Z=10:t=triplet
3%4FV	3%4.c
3%2AZ	.
=163	=163
3%2GV	3%4dV
3%2D	.
3%2EZ	3%2BZ
=164	=164
3%2CV	3%2cV
3%4DZ	3%4AZ
=165	=165
0GG;l	0G;l
!!LO:TX:rj:i:t=[fine]
!!LO:LB:i:g=z
=166||	=166||
*>D	*>D
*clefF4	*clefGv2
*k[]	*k[]
*M2/1	*M2/1
*met(C|/2)	*met(C|/2)
!!LO:TX:Z=12:t=mensuration&colon; Cut C over 2
!!section: Benedictus
!!!OMD: Benedictus
2.GG/	0G
4AA/	.
4BB/	.
4C/	.
[2D\	.
=167	=167
2D\]	0F
4C/	.
4BB/	.
1AA	.
=168	=168
0GG	0G
=169	=169
1r	1D
1D	1d
=170	=170
1E	1B
1C	1c
=171	=171
0G	0d
=172	=172
2.C/	0c
4D\	.
2E\	.
[2F\	.
=173	=173
2F\]	2.A/
4E\	.
4D\	4B\
2C/	2c\
2D\	2A/
=174	=174
1GG	1B
2.D\	2A/
.	[2d\
4E\	.
=175	=175
2F\	2d\]
2G\	4c\
.	4B\
1D	1A
=176	=176
1.E	0G
2C/	.
=177	=177
2.C/	1r
4AA/	.
2AA/	2r
[2C/	[2E/
=178	=178
2C/]	2E/]
2D\	2A/
2E\	2G/
2C/	[2c\
=179	=179
1F	2c\]
.	4B\
.	4A/
1E	1B
=180	=180
1AA	1A
2D\	2r
2C/	[2A/
=181	=181
1D	2A/]
.	2B\
1AA	1c
=182	=182
2.E\	2B\
.	1e
4F\	.
2G\	.
2A\	2c\
=183	=183
2F\	1d
2D\	.
2G\	2G/
2D\	[2d\
=184	=184
2F\	2d\]
2G\	4c\
.	4B\
1D	1A
=185	=185
0GG	1G
.	1r
=186	=186
0r	1.c
.	2B\
=187	=187
1.F	1A
.	1G
2E\	.
=188	=188
1D	1.A
1C	.
.	2G/
=189	=189
1D	1F
1AA	1E
=190	=190
2.D\	2D/
.	2.d\
4E\	.
2F\	.
.	4c\
[2G\	4B\
.	4A/
=191	=191
4G\]	2G/
4F\	.
4E\	2d\
4D\	.
2C/	2e\
2G\	[2d\
=192	=192
2F\	4d\]
.	4c\
2E\	1c
1D	.
.	2B\
=193	=193
1C	1c
1r	1r
=194	=194
0r	0r
=195	=195
0r	0r
=196	=196
0r	0r
=197	=197
1r	1r
1D	1d
=198	=198
0E	2B\
.	2c\
.	2B\
.	[2e\
=199	=199
1F	2e\]
.	2d\
1E	2.e\
.	4d\
=200	=200
2.G\	2.B\
4F\	4c\
2.D\	2.d\
4E\	4c\
=201	=201
2.F\	2.A/
4G\	4B\
2.A\	4c\
.	4d\
.	[2e\
4G\	.
=202	=202
4F\	4e\]
4E\	4d\
2D\	1d
1E	.
.	2c#i\
=203	=203
0D	1d
.	1r
=204	=204
1r	[0G
1GG	.
=205	=205
1G	1G]
[1F	[1c
=206	=206
1F]	0c]
1A	.
=207	=207
1G	1d
1E	1e
=208	=208
1F	1d
1G	1B
=209	=209
1C	1.c
1r	.
.	4B\
.	4A/
=210	=210
2r	2G/
2G\	2d\
2E\	2e\
[2G\	[2d\
=211	=211
4G\]	1d]
4F\	.
2G\	.
2E\	2e\
[2F\	2c\
=212	=212
4F\]	1.d
4E\	.
2F\	.
2D\	.
[2E\	2B\
=213	=213
4E\]	1.c
4D\	.
2E\	.
2C/	.
2D\	2A/
=214	=214
2BB/	2B\
2C/	2G/
2AA/	2A/
2BB/	2F/
=215	=215
2GG/	2.G/
1G	.
.	4A/
.	4B\
.	4c\
2F\	2d\
=216	=216
1E	1G
1D	1A
=217	=217
0GG;l	0G;l
!!LO:TX:i:Y=40:rj:t=[Osanna ut supra]
==	==
*-	*-
!!!RDF**kern: l=long note in original notation
!!!RDF**kern: i=editorial accidental
!!!RDF**kern: V=start of tuplet marker
!!!RDF**kern: Z=end of tuplet marker
!!!ENC:	Reinier de Valk; Victoria Chang 2012/03/28
!!!END:	2012/03/28/
!!!EED:	Jesse Rodin
!!!EEV:	2012/06/27/
!!attribution-level@Jos: 4 (questionable)
!!!ONB:	Translated from MusicXML and edited on 2012/06/27/ by Craig Sapp
!!muse2ps: T^@{OPR}^u^@{ONM}{. }@{OTL}^C^@{COA}?\n@{SCT}^i2I150v95,150Q8c135
